symbols/de/zs2-Ö.svg

<?xml version="1.0" encoding="UTF-8" standalone="no"?>
<svg
   width="11.999999"
   height="12"
   viewBox="0 0 11.999999 12"
   version="1.1"
   id="svg8528"
   sodipodi:docname="w2-{Ö}.svg"
   inkscape:version="1.2.2 (b0a8486541, 2022-12-01)"
   xmlns:inkscape="http://www.inkscape.org/namespaces/inkscape"
   xmlns:sodipodi="http://sodipodi.sourceforge.net/DTD/sodipodi-0.dtd"
   xmlns="http://www.w3.org/2000/svg"
   xmlns:svg="http://www.w3.org/2000/svg">
  <defs
     id="defs8532" />
  <sodipodi:namedview
     id="namedview8530"
     pagecolor="#ffffff"
     bordercolor="#666666"
     borderopacity="1.0"
     inkscape:showpageshadow="2"
     inkscape:pageopacity="0.0"
     inkscape:pagecheckerboard="0"
     inkscape:deskcolor="#d1d1d1"
     showgrid="false"
     inkscape:zoom="28.256938"
     inkscape:cx="7.1840764"
     inkscape:cy="11.979359"
     inkscape:window-width="1920"
     inkscape:window-height="1128"
     inkscape:window-x="0"
     inkscape:window-y="0"
     inkscape:window-maximized="1"
     inkscape:current-layer="svg8528" />
  <rect
     x="-1.2"
     y="-1.2"
     width="14.399999"
     height="14.4"
     fill="rgb(0%, 0%, 0%)"
     fill-opacity="1"
     id="rect8524" />
  <g
     aria-label="Ö"
     id="text847"
     style="font-size:10.4982px;line-height:1.25;-inkscape-font-specification:sans-serif;font-variant-ligatures:none;text-align:center;letter-spacing:0px;word-spacing:0px;text-anchor:middle;stroke-width:0.787364">
    <path
       d="m 6.0051256,3.7675947 q -1.1277364,0 -1.7941261,0.8406762 -0.6612636,0.8406762 -0.6612636,2.2913553 0,1.445553 0.6612636,2.2862292 0.6663897,0.8406766 1.7941261,0.8406766 1.1277364,0 1.7838739,-0.8406766 0.6612636,-0.8406762 0.6612636,-2.2862292 0,-1.4506791 -0.6612636,-2.2913553 Q 7.132862,3.7675947 6.0051256,3.7675947 Z m 0,-0.8406762 q 1.6095874,0 2.5732894,1.0816017 0.9637019,1.0764756 0.9637019,2.891106 0,1.8095043 -0.9637019,2.891106 -0.963702,1.0764758 -2.5732894,1.0764758 -1.6147134,0 -2.5835415,-1.0764758 -0.963702,-1.0764757 -0.963702,-2.891106 0,-1.8146304 0.963702,-2.891106 0.9688281,-1.0816017 2.5835415,-1.0816017 z m 0.481851,-1.794126 H 7.5275697 V 2.1733856 H 6.4869766 Z m -2.0042951,0 H 5.5232746 V 2.1733856 H 4.4826815 Z"
       style="fill:#ffffff"
       id="path12979" />
  </g>
</svg>

<?xml version="1.0" encoding="UTF-8"?>
<svg xmlns="http://www.w3.org/2000/svg" xmlns:xlink="http://www.w3.org/1999/xlink" width="11.999999" height="12" viewBox="0 0 11.999999 12">
<rect x="-1.2" y="-1.2" width="14.399999" height="14.4" fill="rgb(0%, 0%, 0%)" fill-opacity="1"/>
<path fill-rule="nonzero" fill="rgb(100%, 100%, 100%)" fill-opacity="1" d="M 6.003906 3.769531 C 5.253906 3.769531 4.65625 4.046875 4.210938 4.609375 C 3.769531 5.167969 3.550781 5.933594 3.550781 6.898438 C 3.550781 7.863281 3.769531 8.625 4.210938 9.1875 C 4.65625 9.746094 5.253906 10.027344 6.003906 10.027344 C 6.757812 10.027344 7.351562 9.746094 7.789062 9.1875 C 8.230469 8.625 8.449219 7.863281 8.449219 6.898438 C 8.449219 5.933594 8.230469 5.167969 7.789062 4.609375 C 7.351562 4.046875 6.757812 3.769531 6.003906 3.769531 Z M 6.003906 2.925781 C 7.078125 2.925781 7.9375 3.289062 8.578125 4.007812 C 9.222656 4.726562 9.542969 5.691406 9.542969 6.898438 C 9.542969 8.105469 9.222656 9.070312 8.578125 9.789062 C 7.9375 10.507812 7.078125 10.867188 6.003906 10.867188 C 4.929688 10.867188 4.066406 10.507812 3.421875 9.789062 C 2.777344 9.074219 2.457031 8.109375 2.457031 6.898438 C 2.457031 5.691406 2.777344 4.726562 3.421875 4.007812 C 4.066406 3.289062 4.929688 2.925781 6.003906 2.925781 Z M 6.488281 1.132812 L 7.527344 1.132812 L 7.527344 2.171875 L 6.488281 2.171875 Z M 4.484375 1.132812 L 5.523438 1.132812 L 5.523438 2.171875 L 4.484375 2.171875 Z M 4.484375 1.132812 "/>
</svg>
